X:4212
L:1/8
M:2/2
K:G
 G/G/G Bd BG-GB | A/A/A ce c(AA)c | B(dd)f- fgdB | e/f/g dB G/G/G G2 :: g/g/g dB g/g/g dB | 
 =fA-Ac =fA-Ac | Bd-df | fgdB | c/d/e dg G/G/G G2 :: BG d/d/d BGdG | AD c/c/c ADcA | 
 BG d/d/d fgdB | gedB G/G/G G2 :: d/c/ | Bdgd BgdB | =fA A/A/A =fA A/A/A | B(dd)f- fgdB | 
 cedg G/G/G G2 :|

